src/lib/packages/icons/src/assets/line/angle-left-circle.svg

<svg width="24" height="24" viewBox="0 0 24 24" fill="none" xmlns="http://www.w3.org/2000/svg">
<path d="M13.53 9.53003L11.0601 12L13.53 14.47C13.823 14.763 13.823 15.238 13.53 15.531C13.384 15.677 13.192 15.751 13 15.751C12.808 15.751 12.616 15.678 12.47 15.531L9.46997 12.531C9.17697 12.238 9.17697 11.763 9.46997 11.47L12.47 8.46997C12.763 8.17697 13.238 8.17697 13.531 8.46997C13.824 8.76297 13.823 9.23703 13.53 9.53003ZM22.75 12C22.75 17.928 17.928 22.75 12 22.75C6.072 22.75 1.25 17.928 1.25 12C1.25 6.072 6.072 1.25 12 1.25C17.928 1.25 22.75 6.072 22.75 12ZM21.25 12C21.25 6.899 17.101 2.75 12 2.75C6.899 2.75 2.75 6.899 2.75 12C2.75 17.101 6.899 21.25 12 21.25C17.101 21.25 21.25 17.101 21.25 12Z" fill="currentColor"/>
</svg>

<svg xmlns="http://www.w3.org/2000/svg" width="24" height="24" fill="none"><path fill="currentColor" d="M13.53 9.53 11.06 12l2.47 2.47a.75.75 0 0 1-1.06 1.061l-3-3a.75.75 0 0 1 0-1.061l3-3a.75.75 0 1 1 1.06 1.06ZM22.75 12c0 5.928-4.822 10.75-10.75 10.75S1.25 17.928 1.25 12 6.072 1.25 12 1.25 22.75 6.072 22.75 12Zm-1.5 0c0-5.101-4.149-9.25-9.25-9.25S2.75 6.899 2.75 12s4.149 9.25 9.25 9.25 9.25-4.149 9.25-9.25Z"/></svg>
